svgs/light/h4.svg

<svg xmlns="http://www.w3.org/2000/svg" viewBox="0 0 640 512"><!--! Font Awesome Pro 6.3.0 by @fontawesome - https://fontawesome.com License - https://fontawesome.com/license (Commercial License) Copyright 2023 Fonticons, Inc. --><path d="M624 64.22c-8.844 0-16 7.152-16 15.99v187.7h-194.1l33.86-184.8c1.594-8.683-4.156-17.02-12.86-18.61c-8.641-1.374-17.03 4.185-18.61 12.87l-37.33 203.7c-.8594 4.654 .4062 9.463 3.438 13.12c3.047 3.654 7.547 5.747 12.3 5.747H608v132.1C608 440.8 615.2 448 624 448s16-7.152 16-15.99V80.21C640 71.37 632.8 64.22 624 64.22zM304 64C295.2 64 288 71.15 288 79.99v159.9H32V79.99C32 71.15 24.84 64 16 64S0 71.15 0 79.99V431.8c0 8.839 7.156 15.99 16 15.99S32 440.6 32 431.8V271.9h256v159.9c0 8.839 7.156 15.99 16 15.99s16-7.152 16-15.99V79.99C320 71.15 312.8 64 304 64z"/></svg>

<svg xmlns="http://www.w3.org/2000/svg" viewBox="0 0 640 512"><!-- Font Awesome Pro 6.0.0-alpha2 by @fontawesome - https://fontawesome.com License - https://fontawesome.com/license (Commercial License) --><path d="M624 64.219C615.156 64.219 608 71.371 608 80.21V267.884H413.875L447.735 83.083C449.328 74.4 443.578 66.061 434.875 64.468C426.235 63.094 417.844 68.654 416.266 77.336L378.938 281.001C378.078 285.655 379.344 290.465 382.375 294.119C385.422 297.773 389.922 299.866 394.672 299.866H608V432.009C608 440.848 615.156 448 624 448S640 440.848 640 432.009V80.21C640 71.371 632.844 64.219 624 64.219ZM304 64C295.156 64 288 71.152 288 79.991V239.9H32V79.991C32 71.152 24.844 64 16 64S0 71.152 0 79.991V431.79C0 440.629 7.156 447.781 16 447.781S32 440.629 32 431.79V271.882H288V431.79C288 440.629 295.156 447.781 304 447.781S320 440.629 320 431.79V79.991C320 71.152 312.844 64 304 64Z"/></svg>
